public/editor-src/editor/icons/editor/wp-post-info.svg

<svg viewBox="0 0 16 16"><path fill="currentColor" fill-rule="nonzero" d="M8 0C3.6 0 0 3.6 0 8s3.6 8 8 8 8-3.6 8-8-3.6-8-8-8Zm1 12H7V7h2v5ZM8 6c-.6 0-1-.4-1-1s.4-1 1-1 1 .4 1 1-.4 1-1 1Z"/></svg>

<svg id="nc-wp-post-info" viewBox="0 0 16 16">
    <g stroke="none" stroke-width="1" fill-rule="evenodd">
    <path
      d="M8,0 C3.6,0 0,3.6 0,8 C0,12.4 3.6,16 8,16 C12.4,16 16,12.4 16,8 C16,3.6 12.4,0 8,0 Z M9,12 L7,12 L7,7 L9,7 L9,12 Z M8,6 C7.4,6 7,5.6 7,5 C7,4.4 7.4,4 8,4 C8.6,4 9,4.4 9,5 C9,5.6 8.6,6 8,6 Z"
      fill="currentColor"
      fill-rule="nonzero"
    />
    </g>
</svg>
